X: 71
T:George 2nd. JC.069
M:6/4
L:1/8
Q:120
S:John Clare,Poet,Helpston. (1793-1864)
R:Air
O:England
A:Northamptonshire
N:
Z:vmp.P. Headford
K:D
F2|B3cB2^A3^G ^A|B3cB2F4Bc|d3ed2A3Bc2|d3-d2|!
|A A|d2c2d2(e3d)e2|f2e2d2c2d2e2|d3cB2c3B^A2|!
(B3c)B2F4=A A|F3ED2d3cd2|B6-B4A A|d2c2d2(e3d)e2|!
f2e2d2c2d2e2|d3cB2c3B^A2|(B3c)B2F4=A A|F3ED2d2c2d2|B6-B4|]
W:Song text exists.(or not). See Deacon.|
